src/images/visa.svg

<svg width="54" height="35" viewBox="0 0 54 35" fill="none" 
    xmlns="http://www.w3.org/2000/svg">
    <rect width="54" height="35" rx="3" fill="#21125E"/>
    <path fill-rule="evenodd" clip-rule="evenodd" d="M32.7978 13.6788C33.9413 13.6609 34.7701 13.9108 35.4137 14.1697L35.7293 14.318L36.2021 11.5385C35.5099 11.2787 34.4249 11 33.0711 11C29.6174 11 27.183 12.7395 27.1642 15.2322C27.1417 17.0741 28.8982 18.1025 30.2251 18.7165C31.587 19.3458 32.0436 19.7458 32.0373 20.3076C32.0265 21.1661 30.9514 21.5599 29.9473 21.5599C28.5476 21.5599 27.8042 21.3666 26.6563 20.8884L26.2059 20.6834L25.7142 23.5537C26.5322 23.9124 28.0415 24.2207 29.6084 24.2369C33.2824 24.2369 35.6699 22.5181 35.6951 19.8546C35.7104 18.3974 34.7782 17.2854 32.7583 16.373C31.5357 15.7779 30.7878 15.3823 30.795 14.7818C30.795 14.2488 31.4296 13.6788 32.7978 13.6788ZM20.0321 24.0445L22.2174 11.2202H25.7143L23.5272 24.0445H20.0321ZM13.6784 19.9804L17.1015 11.2346L20.8043 11.2319L15.3 24.032L11.6018 24.0383L8.47168 13.3435C10.7217 14.7836 12.6383 17.0688 13.3134 18.6599L13.6784 19.9804ZM42.4714 11.2346H45.1718L47.9998 24.0517H44.7574C44.7574 24.0517 44.4355 22.5784 44.3313 22.1307C44.0625 22.1307 42.937 22.1292 41.8774 22.1278C40.935 22.1265 40.0446 22.1253 39.8554 22.1253C39.7197 22.4714 39.121 24.0517 39.121 24.0517H35.4506L40.6402 12.299C41.0088 11.463 41.6326 11.2346 42.4714 11.2346ZM42.2538 15.9163C42.2538 15.9163 41.149 18.7642 40.8614 19.5004H43.7649L42.955 15.7977L42.7195 14.692C42.6311 14.9281 42.5133 15.2345 42.4181 15.4819C42.3188 15.7403 42.2442 15.9342 42.2538 15.9163Z" fill="white"/>
    <path d="M11.9866 12.1524C11.7834 11.3713 11.1946 11.1384 10.4638 11.1106H5.04495L5 11.3659C9.21694 12.3889 12.0073 14.8538 13.1651 17.8176L11.9866 12.1524Z" fill="#FAA61A"/>
</svg>

<svg width="54" height="35" fill="none" xmlns="http://www.w3.org/2000/svg"><rect width="54" height="35" rx="3" fill="#21125E"/><path fill-rule="evenodd" clip-rule="evenodd" d="M32.798 13.679a6.453 6.453 0 012.616.49l.315.149.473-2.78c-.692-.26-1.777-.538-3.13-.538-3.455 0-5.889 1.74-5.908 4.232-.022 1.842 1.734 2.87 3.061 3.485 1.362.629 1.819 1.029 1.812 1.59-.01.86-1.086 1.253-2.09 1.253-1.4 0-2.143-.193-3.29-.672l-.451-.205-.492 2.87c.818.36 2.328.668 3.894.684 3.674 0 6.062-1.719 6.087-4.382.015-1.458-.917-2.57-2.937-3.482-1.222-.595-1.97-.99-1.963-1.591 0-.533.635-1.103 2.003-1.103zM20.032 24.044l2.185-12.824h3.497l-2.187 12.824h-3.495zm-6.354-4.064l3.424-8.745 3.702-.003-5.504 12.8-3.698.006-3.13-10.694c2.25 1.44 4.166 3.725 4.841 5.316l.365 1.32zm28.793-8.745h2.7L48 24.052h-3.243s-.322-1.474-.426-1.921l-2.454-.003-2.022-.003c-.135.346-.734 1.927-.734 1.927h-3.67l5.19-11.753c.368-.836.992-1.064 1.83-1.064zm-.217 4.681s-1.105 2.848-1.393 3.584h2.904l-.81-3.702-.236-1.106c-.088.236-.206.543-.3.79-.1.258-.175.452-.165.434z" fill="#fff"/><path d="M11.987 12.152c-.204-.78-.792-1.014-1.523-1.041h-5.42L5 11.366c4.217 1.023 7.007 3.488 8.165 6.452l-1.178-5.666z" fill="#FAA61A"/></svg>
